!!!COM: Music21
!!!OTL: slide_Con-Carthys-Favourite
!!!OMV: slide_Con-Carthys-Favourite
**kern
*clefG2
*k[f#c#]
*D:
*M12/8
=1
4b
8a
8bL
8cc#
8ddJ
4b
8a
4f#
8a
=
4b
8a
8bL
8cc#
8ddJ
4.ee
4.ee
=
4b
8a
8bL
8cc#
8ddJ
4b
8a
4f#
8g
=
8aL
8f#
8f#J
4d
8f#
4.e
4.e
!!linebreak:original
=||
*M12/8
4b
8a
8bL
8cc#
8ddJ
4b
8a
4f#
8a
=
4b
8a
8bL
8cc#
8ddJ
4.ee
4.ee
=
4b
8a
8bL
8cc#
8ddJ
4b
8a
4f#
8g
=
8aL
8f#
8f#J
4d
8f#
4.e
4.e
!!linebreak:original
=||
4ff#
8ee
4dd
8cc#
4b
8a
4f#
8ee
=
4ff#
8ee
8ddL
8ee
8ff#J
4.ee
4ee
8gg
=
4ff#
8ee
4dd
8cc#
4b
8a
4f#
8g
=
8aL
8f#
8f#J
4d
8f#
4.e
4.e
=||
4ff#
8ee
4dd
8cc#
4b
8a
4f#
8ee
!!linebreak:original
=
4ff#
8ee
8ddL
8ee
8ff#J
4.ee
4ee
8gg
=
4ff#
8ee
4dd
8cc#
4b
8a
4f#
8g
=
8aL
8f#
8f#J
4d
8f#
4.e
4.e
=||
*-
